SVG_Azure_All/ExpressRoute Direct.svg

<?xml version="1.0" encoding="UTF-8" standalone="no"?>
<!-- Generated by Microsoft Visio, SVG Export ExpressRoute Direct.svg Page-1 -->

<svg
   xmlns:dc="http://purl.org/dc/elements/1.1/"
   xmlns:cc="http://creativecommons.org/ns#"
   xmlns:rdf="http://www.w3.org/1999/02/22-rdf-syntax-ns#"
   xmlns:svg="http://www.w3.org/2000/svg"
   xmlns="http://www.w3.org/2000/svg"
   xmlns:sodipodi="http://sodipodi.sourceforge.net/DTD/sodipodi-0.dtd"
   xmlns:inkscape="http://www.inkscape.org/namespaces/inkscape"
   width="0.78739005in"
   height="0.68266374in"
   viewBox="0 0 56.691992 49.151891"
   xml:space="preserve"
   class="st7"
   version="1.1"
   id="svg60"
   sodipodi:docname="ExpressRoute Direct.svg"
   style="font-size:12px;overflow:visible;color-interpolation-filters:sRGB;fill:none;fill-rule:evenodd;stroke-linecap:square;stroke-miterlimit:3"
   inkscape:version="0.92.5 (2060ec1f9f, 2020-04-08)"><metadata
   id="metadata64"><rdf:RDF><cc:Work
       rdf:about=""><dc:format>image/svg+xml</dc:format><dc:type
         rdf:resource="http://purl.org/dc/dcmitype/StillImage" /></cc:Work></rdf:RDF></metadata><sodipodi:namedview
   pagecolor="#ffffff"
   bordercolor="#666666"
   borderopacity="1"
   objecttolerance="10"
   gridtolerance="10"
   guidetolerance="10"
   inkscape:pageopacity="0"
   inkscape:pageshadow="2"
   inkscape:window-width="640"
   inkscape:window-height="480"
   id="namedview62"
   showgrid="false"
   inkscape:zoom="1.5108866"
   inkscape:cx="37.795257"
   inkscape:cy="32.769212"
   inkscape:window-x="0"
   inkscape:window-y="0"
   inkscape:window-maximized="0"
   inkscape:current-layer="svg60" />
	<style
   type="text/css"
   id="style2">
	<![CDATA[
		.st1 {fill:#773adc;stroke:none;stroke-linecap:butt;stroke-width:34}
		.st2 {fill:#86d633;stroke:none;stroke-linecap:butt;stroke-width:34}
		.st3 {fill:#ffffff;stroke:none;stroke-linecap:butt;stroke-width:34}
		.st4 {fill:#a67af4;stroke:none;stroke-linecap:butt;stroke-width:34}
		.st5 {fill:#b796f9;stroke:none;stroke-linecap:butt;stroke-width:34}
		.st6 {fill:url(#grad0-20);stroke:none;stroke-linecap:butt;stroke-width:34}
		.st7 {fill:none;fill-rule:evenodd;font-size:12px;overflow:visible;stroke-linecap:square;stroke-miterlimit:3}
	]]>
	</style>

	<defs
   id="Patterns_And_Gradients">
		<linearGradient
   id="grad0-20"
   x1="-2.3488855"
   y1="88.181631"
   x2="33.152944"
   y2="88.181631"
   gradientTransform="scale(1.0113732,0.98875467)"
   gradientUnits="userSpaceOnUse">
			<stop
   offset="0"
   stop-color="#a67af4"
   stop-opacity="1"
   id="stop4" />
			<stop
   offset="1"
   stop-color="#773adc"
   stop-opacity="1"
   id="stop6" />
		</linearGradient>
	</defs>
	<g
   id="g58"
   transform="translate(-34.000229,-34.000068)">
		<title
   id="title10">Page-1</title>
		<g
   id="group4690-1"
   transform="translate(34,-34.9607)">
			<title
   id="title12">ExpressRoute Direct</title>
			<g
   id="group4691-2">
				<title
   id="title14">Sheet.4691</title>
				<g
   id="shape4692-3"
   transform="translate(5.31339,-17.0524)">
					<title
   id="title16">Sheet.4692</title>
					<path
   d="M 10.1,93.54 13.74,95.6 3.64,112.7 0,110.65 Z m 3.67,2.38 3.64,-2.05 10.1,17.11 -3.64,2.05 z m 9.93,17.12 v 4.11 H 3.5 v -4.11 z"
   class="st1"
   id="path18"
   inkscape:connector-curvature="0"
   style="fill:#773adc;stroke:none;stroke-width:34;stroke-linecap:butt" />
				</g>
				<g
   id="shape4693-5"
   transform="translate(14.1669,-38.1755)">
					<title
   id="title21">Sheet.4693</title>
					<ellipse
   cx="5.1212602"
   cy="112.143"
   rx="5.1212602"
   ry="5.0067301"
   class="st2"
   id="ellipse23"
   style="fill:#86d633;stroke:none;stroke-width:34;stroke-linecap:butt" />
				</g>
				<g
   id="shape4694-7"
   transform="translate(0,-13.8039)">
					<title
   id="title26">Sheet.4694</title>
					<ellipse
   cx="5.1212602"
   cy="112.143"
   rx="5.1212602"
   ry="5.0067301"
   class="st2"
   id="ellipse28"
   style="fill:#86d633;stroke:none;stroke-width:34;stroke-linecap:butt" />
				</g>
				<g
   id="shape4695-9"
   transform="translate(21.9181)">
					<title
   id="title31">Sheet.4695</title>
					<ellipse
   cx="16.7717"
   cy="100.753"
   rx="16.7717"
   ry="16.396601"
   class="st3"
   id="ellipse33"
   style="fill:#ffffff;stroke:none;stroke-width:34;stroke-linecap:butt" />
				</g>
				<g
   id="shape4696-11"
   transform="translate(30.1609,-7.05129)">
					<title
   id="title36">Sheet.4696</title>
					<path
   d="M 0.87,112.04 A 0.944882,0.92375 0 0 1 0.202283,110.46347 L 3.76,107 a 0.944882,0.92375 0 1 1 1.33543,1.30249 L 1.54,111.77 a 0.944882,0.92375 0 0 1 -0.667717,0.27097 z m 2.63,2.57 A 0.944882,0.92375 0 0 1 2.832283,113.03347 L 6.37,109.56 a 0.944882,0.92375 0 1 1 1.33543,1.30557 L 4.17,114.34 a 0.944882,0.92375 0 0 1 -0.674016,0.26789 z m 2.59,2.54 A 0.944882,0.92375 0 0 1 5.422283,115.57655 L 8.98,112.1 a 0.945408,0.924265 0 1 1 1.33858,1.30557 L 6.77,116.89 a 0.944882,0.92375 0 0 1 -0.670866,0.25557 z M 7.4,105.67 A 0.944882,0.92375 0 0 1 6.732283,104.09655 L 10.28,100.62 a 0.944882,0.92375 0 0 1 1.33543,1.30557 L 8.06,105.4 a 0.944882,0.92375 0 0 1 -0.667717,0.27097 z m 2.62,2.56 A 0.944882,0.92375 0 0 1 9.352283,106.65655 L 12.9,103.19 a 0.945408,0.924265 0 0 1 1.33858,1.30557 L 10.69,107.96 a 0.944882,0.92375 0 0 1 -0.670866,0.26789 z m 2.6,2.54 a 0.944882,0.92375 0 0 1 -0.667717,-1.57653 L 15.51,105.72 a 0.94540808,0.92426508 0 0 1 1.33543,1.30865 L 13.29,110.5 a 0.944882,0.92375 0 0 1 -0.674016,0.26789 z"
   class="st1"
   id="path38"
   inkscape:connector-curvature="0"
   style="fill:#773adc;stroke:none;stroke-width:34;stroke-linecap:butt" />
				</g>
				<g
   id="shape4697-13"
   transform="translate(22.8976,-0.283283)">
					<title
   id="title41">Sheet.4697</title>
					<path
   d="m 7.4,103.11 a 0.944882,0.92375 -180 0 0 -1.33858,0 L 0,109.04 a 18.0063,17.6036 -180 0 0 9.28,8.11 l 5.57,-5.44 a 0.944882,0.92375 -180 0 0 0,-1.31173 z"
   class="st4"
   id="path43"
   inkscape:connector-curvature="0"
   style="fill:#a67af4;stroke:none;stroke-width:34;stroke-linecap:butt" />
				</g>
				<g
   id="shape4698-15"
   transform="translate(39.9741,-16.479)">
					<title
   id="title46">Sheet.4698</title>
					<path
   d="m 7.18,101.53 -6.9,6.75 a 0.944882,0.92375 -180 0 0 0,1.30865 L 7.73,116.88 a 0.944882,0.92375 -180 0 0 1.33858,0 L 15.48,110.62 a 17.9937,17.5913 -180 0 0 -8.3,-9.09 z"
   class="st5"
   id="path48"
   inkscape:connector-curvature="0"
   style="fill:#b796f9;stroke:none;stroke-width:34;stroke-linecap:butt" />
				</g>
				<g
   id="shape4699-17"
   transform="translate(23.1622,-4.17994)">
					<title
   id="title51">Sheet.4699</title>
					<path
   d="M 15.58,89.5 A 15.578,15.2296 0 1 1 0,104.73 15.5969,15.248 0 0 1 15.58,89.5 Z m 0,-2.31 A 17.9528,17.5513 -180 1 0 33.53,104.74 17.9528,17.5513 -180 0 0 15.58,87.19 Z"
   class="st6"
   id="path53"
   inkscape:connector-curvature="0"
   style="fill:url(#grad0-20);stroke:none;stroke-width:34;stroke-linecap:butt" />
				</g>
			</g>
		</g>
	</g>
</svg>

<?xml version="1.0" encoding="UTF-8" standalone="no"?>
<!DOCTYPE svg PUBLIC "-//W3C//DTD SVG 1.1//EN" "http://www.w3.org/Graphics/SVG/1.1/DTD/svg11.dtd">
<!-- Generated by Microsoft Visio, SVG Export ExpressRoute Direct.svg Page-1 -->
<svg xmlns="http://www.w3.org/2000/svg" xmlns:xlink="http://www.w3.org/1999/xlink" xmlns:ev="http://www.w3.org/2001/xml-events"
		width="1.73185in" height="1.62708in" viewBox="0 0 124.693 117.15" xml:space="preserve" color-interpolation-filters="sRGB"
		class="st7">
	<style type="text/css">
	<![CDATA[
		.st1 {fill:#773adc;stroke:none;stroke-linecap:butt;stroke-width:34}
		.st2 {fill:#86d633;stroke:none;stroke-linecap:butt;stroke-width:34}
		.st3 {fill:#ffffff;stroke:none;stroke-linecap:butt;stroke-width:34}
		.st4 {fill:#a67af4;stroke:none;stroke-linecap:butt;stroke-width:34}
		.st5 {fill:#b796f9;stroke:none;stroke-linecap:butt;stroke-width:34}
		.st6 {fill:url(#grad0-20);stroke:none;stroke-linecap:butt;stroke-width:34}
		.st7 {fill:none;fill-rule:evenodd;font-size:12px;overflow:visible;stroke-linecap:square;stroke-miterlimit:3}
	]]>
	</style>

	<defs id="Patterns_And_Gradients">
		<linearGradient id="grad0-20" x1="0" y1="0" x2="1" y2="0" gradientTransform="rotate(97.526551594187 0.5 0.5)">
			<stop offset="0" stop-color="#a67af4" stop-opacity="1"/>
			<stop offset="1" stop-color="#773adc" stop-opacity="1"/>
		</linearGradient>
	</defs>
	<g>
		<title>Page-1</title>
		<g id="group4584-1" transform="translate(34,-34.9607)">
			<title>ExpressRoute Direct</title>
			<g id="group4585-2">
				<title>Sheet.4585</title>
				<g id="shape4586-3" transform="translate(5.31339,-17.0524)">
					<title>Sheet.4586</title>
					<path d="M10.1 93.54 L13.74 95.6 L3.64 112.7 L0 110.65 L10.1 93.54 ZM13.77 95.92 L17.41 93.87 L27.51 110.98 L23.87
								 113.03 L13.77 95.92 ZM23.7 113.04 L23.7 117.15 L3.5 117.15 L3.5 113.04 L23.7 113.04 Z" class="st1"/>
				</g>
				<g id="shape4587-5" transform="translate(14.1669,-38.1755)">
					<title>Sheet.4587</title>
					<ellipse cx="5.12126" cy="112.143" rx="5.12126" ry="5.00673" class="st2"/>
				</g>
				<g id="shape4588-7" transform="translate(-1.13909E-13,-13.8039)">
					<title>Sheet.4588</title>
					<ellipse cx="5.12126" cy="112.143" rx="5.12126" ry="5.00673" class="st2"/>
				</g>
				<g id="shape4589-9" transform="translate(21.9181,2.55795E-13)">
					<title>Sheet.4589</title>
					<ellipse cx="16.7717" cy="100.753" rx="16.7717" ry="16.3966" class="st3"/>
				</g>
				<g id="shape4590-11" transform="translate(30.1609,-7.05129)">
					<title>Sheet.4590</title>
					<path d="M0.87 112.04 a0.944882 0.92375 0 0 1 -0.667717 -1.57653 L3.76 107 a0.944882 0.92375 0 1 1 1.33543 1.30249
								 L1.54 111.77 a0.944882 0.92375 0 0 1 -0.667717 0.270967 ZM3.5 114.61 a0.944882 0.92375 0 0 1 -0.667717
								 -1.57653 L6.37 109.56 a0.944882 0.92375 0 1 1 1.33543 1.30557 L4.17 114.34 a0.944882 0.92375 0 0
								 1 -0.674016 0.267888 ZM6.09 117.15 a0.944882 0.92375 0 0 1 -0.667717 -1.57345 L8.98 112.1 a0.945408
								 0.924265 0 1 1 1.33858 1.30557 L6.77 116.89 a0.944882 0.92375 0 0 1 -0.670866 0.255571 ZM7.4 105.67
								 a0.944882 0.92375 0 0 1 -0.667717 -1.57345 L10.28 100.62 a0.944882 0.92375 0 0 1 1.33543 1.30557
								 L8.06 105.4 a0.944882 0.92375 0 0 1 -0.667717 0.270967 ZM10.02 108.23 a0.944882 0.92375 0 0 1 -0.667717
								 -1.57345 L12.9 103.19 a0.945408 0.924265 0 0 1 1.33858 1.30557 L10.69 107.96 a0.944882 0.92375 0
								 0 1 -0.670866 0.267888 ZM12.62 110.77 a0.944882 0.92375 0 0 1 -0.667717 -1.57653 L15.51 105.72 a0.945408
								 0.924265 0 0 1 1.33543 1.30865 L13.29 110.5 a0.944882 0.92375 0 0 1 -0.674016 0.267888 Z"
							class="st1"/>
				</g>
				<g id="shape4591-13" transform="translate(22.8976,-0.283283)">
					<title>Sheet.4591</title>
					<path d="M7.4 103.11 a0.944882 0.92375 -180 0 0 -1.33858 1.42109E-14 L0 109.04 A18.0063 17.6036 -180 0 0 9.28
								 117.15 L14.85 111.71 a0.944882 0.92375 -180 0 0 8.88178E-15 -1.31173 L7.4 103.11 Z" class="st4"/>
				</g>
				<g id="shape4592-15" transform="translate(39.9741,-16.479)">
					<title>Sheet.4592</title>
					<path d="M7.18 101.53 L0.28 108.28 a0.944882 0.92375 -180 0 0 -4.77396E-15 1.30865 L7.73 116.88 a0.944882 0.92375
								 -180 0 0 1.33858 0 L15.48 110.62 A17.9937 17.5913 -180 0 0 7.18 101.53 Z" class="st5"/>
				</g>
				<g id="shape4593-17" transform="translate(23.1622,-4.17994)">
					<title>Sheet.4593</title>
					<path d="M15.58 89.5 A15.578 15.2296 0 1 1 0 104.73 A15.5969 15.248 0 0 1 15.58 89.5 ZM15.58 87.19 A17.9528 17.5513
								 -180 1 0 33.53 104.74 A17.9528 17.5513 -180 0 0 15.58 87.19 Z" class="st6"/>
				</g>
			</g>
		</g>
	</g>
</svg>
